flaticon/constructions/switch-7.svg

<svg xmlns="http://www.w3.org/2000/svg" width="32" height="32" viewBox="0 0 24 24">
    <path d="M10.398438 10.789062C10.199219 10.789062 10 10.988281 10 11.1875 10 11.429688 10.160156 11.589844 10.398438 11.589844 10.640625 11.589844 10.800781 11.429688 10.800781 11.1875 10.800781 10.949219 10.640625 10.789062 10.398438 10.789062zM8 10.789062C7.800781 10.789062 7.601562 10.988281 7.601562 11.1875 7.601562 11.429688 7.761719 11.589844 8 11.589844 8.238281 11.589844 8.398438 11.429688 8.398438 11.1875 8.398438 10.949219 8.238281 10.789062 8 10.789062zM5.601562 10.789062C5.398438 10.789062 5.199219 10.988281 5.199219 11.1875 5.199219 11.429688 5.359375 11.589844 5.601562 11.589844 5.839844 11.589844 6 11.429688 6 11.1875 6 10.949219 5.839844 10.789062 5.601562 10.789062zM11.601562 9.589844C11.398438 9.589844 11.199219 9.789062 11.199219 9.988281 11.199219 10.226562 11.359375 10.386719 11.601562 10.386719 11.839844 10.386719 12 10.226562 12 9.988281 12 9.746094 11.839844 9.589844 11.601562 9.589844zM9.199219 9.589844C9 9.589844 8.800781 9.789062 8.800781 9.988281 8.800781 10.226562 8.960938 10.386719 9.199219 10.386719 9.441406 10.386719 9.601562 10.226562 9.601562 9.988281 9.601562 9.746094 9.441406 9.589844 9.199219 9.589844zM11.601562 7.1875C11.398438 7.1875 11.199219 7.386719 11.199219 7.589844 11.199219 7.828125 11.359375 7.988281 11.601562 7.988281 11.839844 7.988281 12 7.828125 12 7.589844 12 7.347656 11.839844 7.1875 11.601562 7.1875zM9.199219 7.1875C9 7.1875 8.800781 7.386719 8.800781 7.589844 8.800781 7.828125 8.960938 7.988281 9.199219 7.988281 9.441406 7.988281 9.601562 7.828125 9.601562 7.589844 9.601562 7.347656 9.441406 7.1875 9.199219 7.1875zM10.398438 8.386719C10.199219 8.386719 10 8.589844 10 8.789062 10 9.027344 10.160156 9.1875 10.398438 9.1875 10.640625 9.1875 10.800781 9.027344 10.800781 8.789062 10.800781 8.546875 10.640625 8.386719 10.398438 8.386719zM8 8.386719C7.800781 8.386719 7.601562 8.589844 7.601562 8.789062 7.601562 9.027344 7.761719 9.1875 8 9.1875 8.238281 9.1875 8.398438 9.027344 8.398438 8.789062 8.398438 8.546875 8.238281 8.386719 8 8.386719zM10.398438 5.988281C10.199219 5.988281 10 6.1875 10 6.386719 10 6.628906 10.160156 6.789062 10.398438 6.789062 10.640625 6.789062 10.800781 6.628906 10.800781 6.386719 10.800781 6.148438 10.640625 5.988281 10.398438 5.988281zM8 5.988281C7.800781 5.988281 7.601562 6.1875 7.601562 6.386719 7.601562 6.628906 7.761719 6.789062 8 6.789062 8.238281 6.789062 8.398438 6.628906 8.398438 6.386719 8.398438 6.148438 8.238281 5.988281 8 5.988281zM6.800781 9.589844C6.601562 9.589844 6.398438 9.789062 6.398438 9.988281 6.398438 10.226562 6.558594 10.386719 6.800781 10.386719 7.039062 10.386719 7.199219 10.226562 7.199219 9.988281 7.199219 9.746094 7.039062 9.589844 6.800781 9.589844zM6.800781 7.1875C6.601562 7.1875 6.398438 7.386719 6.398438 7.589844 6.398438 7.828125 6.558594 7.988281 6.800781 7.988281 7.039062 7.988281 7.199219 7.828125 7.199219 7.589844 7.199219 7.347656 7.039062 7.1875 6.800781 7.1875zM5.601562 8.386719C5.398438 8.386719 5.199219 8.589844 5.199219 8.789062 5.199219 9.027344 5.359375 9.1875 5.601562 9.1875 5.839844 9.1875 6 9.027344 6 8.789062 6 8.546875 5.839844 8.386719 5.601562 8.386719zM5.601562 5.988281C5.398438 5.988281 5.199219 6.1875 5.199219 6.386719 5.199219 6.628906 5.359375 6.789062 5.601562 6.789062 5.839844 6.789062 6 6.628906 6 6.386719 6 6.148438 5.839844 5.988281 5.601562 5.988281zM11.601562 4.789062C11.398438 4.789062 11.199219 4.988281 11.199219 5.1875 11.199219 5.429688 11.359375 5.589844 11.601562 5.589844 11.839844 5.589844 12 5.429688 12 5.1875 12 4.949219 11.839844 4.789062 11.601562 4.789062zM9.199219 4.789062C9 4.789062 8.800781 4.988281 8.800781 5.1875 8.800781 5.429688 8.960938 5.589844 9.199219 5.589844 9.441406 5.589844 9.601562 5.429688 9.601562 5.1875 9.601562 4.949219 9.441406 4.789062 9.199219 4.789062zM6.800781 4.789062C6.601562 4.789062 6.398438 4.988281 6.398438 5.1875 6.398438 5.429688 6.558594 5.589844 6.800781 5.589844 7.039062 5.589844 7.199219 5.429688 7.199219 5.1875 7.199219 4.949219 7.039062 4.789062 6.800781 4.789062zM17.601562 17.988281C17.398438 17.988281 17.199219 18.1875 17.199219 18.386719 17.199219 18.628906 17.359375 18.789062 17.601562 18.789062 17.839844 18.789062 18 18.628906 18 18.386719 18 18.148438 17.839844 17.988281 17.601562 17.988281zM15.199219 17.988281C15 17.988281 14.800781 18.1875 14.800781 18.386719 14.800781 18.628906 14.960938 18.789062 15.199219 18.789062 15.441406 18.789062 15.601562 18.628906 15.601562 18.386719 15.601562 18.148438 15.441406 17.988281 15.199219 17.988281zM12.800781 17.988281C12.601562 17.988281 12.398438 18.1875 12.398438 18.386719 12.398438 18.628906 12.558594 18.789062 12.800781 18.789062 13.039062 18.789062 13.199219 18.628906 13.199219 18.386719 13.199219 18.148438 13.039062 17.988281 12.800781 17.988281zM18.800781 16.789062C18.601562 16.789062 18.398438 16.988281 18.398438 17.1875 18.398438 17.429688 18.558594 17.589844 18.800781 17.589844 19.039062 17.589844 19.199219 17.429688 19.199219 17.1875 19.199219 16.949219 19.039062 16.789062 18.800781 16.789062zM16.398438 16.789062C16.199219 16.789062 16 16.988281 16 17.1875 16 17.429688 16.160156 17.589844 16.398438 17.589844 16.640625 17.589844 16.800781 17.429688 16.800781 17.1875 16.800781 16.949219 16.640625 16.789062 16.398438 16.789062zM18.800781 14.386719C18.601562 14.386719 18.398438 14.589844 18.398438 14.789062 18.398438 15.027344 18.558594 15.1875 18.800781 15.1875 19.039062 15.1875 19.199219 15.027344 19.199219 14.789062 19.199219 14.546875 19.039062 14.386719 18.800781 14.386719zM16.398438 14.386719C16.199219 14.386719 16 14.589844 16 14.789062 16 15.027344 16.160156 15.1875 16.398438 15.1875 16.640625 15.1875 16.800781 15.027344 16.800781 14.789062 16.800781 14.546875 16.640625 14.386719 16.398438 14.386719zM17.601562 15.589844C17.398438 15.589844 17.199219 15.789062 17.199219 15.988281 17.199219 16.226562 17.359375 16.386719 17.601562 16.386719 17.839844 16.386719 18 16.226562 18 15.988281 18 15.746094 17.839844 15.589844 17.601562 15.589844zM15.199219 15.589844C15 15.589844 14.800781 15.789062 14.800781 15.988281 14.800781 16.226562 14.960938 16.386719 15.199219 16.386719 15.441406 16.386719 15.601562 16.226562 15.601562 15.988281 15.601562 15.746094 15.441406 15.589844 15.199219 15.589844zM17.601562 13.1875C17.398438 13.1875 17.199219 13.386719 17.199219 13.589844 17.199219 13.828125 17.359375 13.988281 17.601562 13.988281 17.839844 13.988281 18 13.828125 18 13.589844 18 13.347656 17.839844 13.1875 17.601562 13.1875zM15.199219 13.1875C15 13.1875 14.800781 13.386719 14.800781 13.589844 14.800781 13.828125 14.960938 13.988281 15.199219 13.988281 15.441406 13.988281 15.601562 13.828125 15.601562 13.589844 15.601562 13.347656 15.441406 13.1875 15.199219 13.1875zM14 16.789062C13.800781 16.789062 13.601562 16.988281 13.601562 17.1875 13.601562 17.429688 13.761719 17.589844 14 17.589844 14.238281 17.589844 14.398438 17.429688 14.398438 17.1875 14.398438 16.949219 14.238281 16.789062 14 16.789062zM14 14.386719C13.800781 14.386719 13.601562 14.589844 13.601562 14.789062 13.601562 15.027344 13.761719 15.1875 14 15.1875 14.238281 15.1875 14.398438 15.027344 14.398438 14.789062 14.398438 14.546875 14.238281 14.386719 14 14.386719zM12.800781 15.589844C12.601562 15.589844 12.398438 15.789062 12.398438 15.988281 12.398438 16.226562 12.558594 16.386719 12.800781 16.386719 13.039062 16.386719 13.199219 16.226562 13.199219 15.988281 13.199219 15.746094 13.039062 15.589844 12.800781 15.589844zM12.800781 13.1875C12.601562 13.1875 12.398438 13.386719 12.398438 13.589844 12.398438 13.828125 12.558594 13.988281 12.800781 13.988281 13.039062 13.988281 13.199219 13.828125 13.199219 13.589844 13.199219 13.347656 13.039062 13.1875 12.800781 13.1875zM18.800781 11.988281C18.601562 11.988281 18.398438 12.1875 18.398438 12.386719 18.398438 12.628906 18.558594 12.789062 18.800781 12.789062 19.039062 12.789062 19.199219 12.628906 19.199219 12.386719 19.199219 12.148438 19.039062 11.988281 18.800781 11.988281zM16.398438 11.988281C16.199219 11.988281 16 12.1875 16 12.386719 16 12.628906 16.160156 12.789062 16.398438 12.789062 16.640625 12.789062 16.800781 12.628906 16.800781 12.386719 16.800781 12.148438 16.640625 11.988281 16.398438 11.988281zM14 11.988281C13.800781 11.988281 13.601562 12.1875 13.601562 12.386719 13.601562 12.628906 13.761719 12.789062 14 12.789062 14.238281 12.789062 14.398438 12.628906 14.398438 12.386719 14.398438 12.148438 14.238281 11.988281 14 11.988281zM14 11.988281"/>
    <path d="M 22.398438 0 L 1.601562 0 C 0.71875 0 0 0.71875 0 1.601562 L 0 22.398438 C 0 23.28125 0.71875 24 1.601562 24 L 22.398438 24 C 23.28125 24 24 23.28125 24 22.398438 L 24 1.601562 C 24 0.71875 23.28125 0 22.398438 0 Z M 23.199219 22.398438 C 23.199219 22.839844 22.839844 23.199219 22.398438 23.199219 L 1.601562 23.199219 C 1.160156 23.199219 0.800781 22.839844 0.800781 22.398438 L 0.800781 1.601562 C 0.800781 1.160156 1.160156 0.800781 1.601562 0.800781 L 22.398438 0.800781 C 22.839844 0.800781 23.199219 1.160156 23.199219 1.601562 Z M 23.199219 22.398438"/>
    <path d="M2.398438 1.601562C1.960938 1.601562 1.601562 1.960938 1.601562 2.398438 1.601562 2.839844 1.960938 3.199219 2.398438 3.199219 2.839844 3.199219 3.199219 2.839844 3.199219 2.398438 3.199219 1.960938 2.839844 1.601562 2.398438 1.601562zM2.398438 20.800781C1.960938 20.800781 1.601562 21.160156 1.601562 21.601562 1.601562 22.039062 1.960938 22.398438 2.398438 22.398438 2.839844 22.398438 3.199219 22.039062 3.199219 21.601562 3.199219 21.160156 2.839844 20.800781 2.398438 20.800781zM21.601562 1.601562C21.160156 1.601562 20.800781 1.960938 20.800781 2.398438 20.800781 2.839844 21.160156 3.199219 21.601562 3.199219 22.039062 3.199219 22.398438 2.839844 22.398438 2.398438 22.398438 1.960938 22.039062 1.601562 21.601562 1.601562zM21.601562 20.800781C21.160156 20.800781 20.800781 21.160156 20.800781 21.601562 20.800781 22.039062 21.160156 22.398438 21.601562 22.398438 22.039062 22.398438 22.398438 22.039062 22.398438 21.601562 22.398438 21.160156 22.039062 20.800781 21.601562 20.800781zM19.601562 4.800781C19.601562 4.558594 19.441406 4.398438 19.199219 4.398438L4.800781 4.398438C4.558594 4.398438 4.398438 4.558594 4.398438 4.800781L4.398438 19.199219C4.398438 19.441406 4.558594 19.601562 4.800781 19.601562L12 19.601562C12.007812 19.601562 12.011719 19.597656 12.019531 19.597656 12.027344 19.597656 12.03125 19.601562 12.039062 19.601562L19.199219 19.601562C19.441406 19.601562 19.601562 19.441406 19.601562 19.199219zM12.398438 5.199219L18.800781 5.199219 18.800781 11.601562 12.398438 11.601562zM5.199219 5.199219L11.601562 5.199219 11.601562 11.601562 5.199219 11.601562zM11.640625 18.800781L5.238281 18.800781 5.238281 12.398438 11.640625 12.398438zM18.839844 18.800781L12.441406 18.800781 12.441406 12.398438 18.839844 12.398438zM18.839844 18.800781"/>
    <path d="M15.601562 6.800781C14.71875 6.800781 14 7.519531 14 8.398438 14 9.28125 14.71875 10 15.601562 10 16.480469 10 17.199219 9.28125 17.199219 8.398438 17.199219 7.519531 16.480469 6.800781 15.601562 6.800781zM15.601562 9.199219C15.160156 9.199219 14.800781 8.839844 14.800781 8.398438 14.800781 7.960938 15.160156 7.601562 15.601562 7.601562 16.039062 7.601562 16.398438 7.960938 16.398438 8.398438 16.398438 8.839844 16.039062 9.199219 15.601562 9.199219zM8.398438 17.199219C8.640625 17.199219 8.800781 17.039062 8.800781 16.800781L8.800781 14.398438C8.800781 14.160156 8.640625 14 8.398438 14 8.160156 14 8 14.160156 8 14.398438L8 16.800781C8 17.039062 8.160156 17.199219 8.398438 17.199219zM8.398438 17.199219"/>
</svg>

<svg xmlns="http://www.w3.org/2000/svg" width="32" height="32" viewBox="0 0 24 24">
    <path d="M10.398 10.79c-.199 0-.398.198-.398.398 0 .242.16.402.398.402.243 0 .403-.16.403-.402 0-.239-.16-.399-.403-.399zm0 0M8 10.79c-.2 0-.398.198-.398.398 0 .242.16.402.398.402.238 0 .398-.16.398-.402 0-.239-.16-.399-.398-.399zm0 0M5.602 10.79c-.204 0-.403.198-.403.398 0 .242.16.402.403.402.238 0 .398-.16.398-.402 0-.239-.16-.399-.398-.399zm0 0M11.602 9.59c-.204 0-.403.2-.403.398 0 .239.16.399.403.399.238 0 .398-.16.398-.399 0-.242-.16-.398-.398-.398zm0 0M9.2 9.59c-.2 0-.4.2-.4.398 0 .239.16.399.4.399.241 0 .402-.16.402-.399 0-.242-.16-.398-.403-.398zm0 0M11.602 7.188a.43.43 0 0 0-.403.402c0 .238.16.398.403.398.238 0 .398-.16.398-.398 0-.242-.16-.402-.398-.402zm0 0M9.2 7.188c-.2 0-.4.199-.4.402 0 .238.16.398.4.398.241 0 .402-.16.402-.398 0-.242-.16-.402-.403-.402zm0 0M10.398 8.387c-.199 0-.398.203-.398.402 0 .238.16.399.398.399.243 0 .403-.16.403-.399 0-.242-.16-.402-.403-.402zm0 0M8 8.387c-.2 0-.398.203-.398.402 0 .238.16.399.398.399.238 0 .398-.16.398-.399 0-.242-.16-.402-.398-.402zm0 0M10.398 5.988c-.199 0-.398.2-.398.399 0 .242.16.402.398.402.243 0 .403-.16.403-.402 0-.239-.16-.399-.403-.399zm0 0M8 5.988c-.2 0-.398.2-.398.399 0 .242.16.402.398.402.238 0 .398-.16.398-.402 0-.239-.16-.399-.398-.399zm0 0M6.8 9.59c-.198 0-.402.2-.402.398 0 .239.16.399.403.399.238 0 .398-.16.398-.399 0-.242-.16-.398-.398-.398zm0 0M6.8 7.188c-.198 0-.402.199-.402.402 0 .238.16.398.403.398.238 0 .398-.16.398-.398 0-.242-.16-.402-.398-.402zm0 0M5.602 8.387c-.204 0-.403.203-.403.402 0 .238.16.399.403.399.238 0 .398-.16.398-.399 0-.242-.16-.402-.398-.402zm0 0M5.602 5.988c-.204 0-.403.2-.403.399 0 .242.16.402.403.402.238 0 .398-.16.398-.402 0-.239-.16-.399-.398-.399zm0 0M11.602 4.79c-.204 0-.403.198-.403.397 0 .243.16.403.403.403.238 0 .398-.16.398-.402 0-.239-.16-.399-.398-.399zm0 0M9.2 4.79c-.2 0-.4.198-.4.397 0 .243.16.403.4.403.241 0 .402-.16.402-.402 0-.239-.16-.399-.403-.399zm0 0M6.8 4.79c-.198 0-.402.198-.402.397 0 .243.16.403.403.403.238 0 .398-.16.398-.402 0-.239-.16-.399-.398-.399zm0 0M17.602 17.988c-.204 0-.403.2-.403.399 0 .242.16.402.403.402.238 0 .398-.16.398-.402 0-.239-.16-.399-.398-.399zm0 0M15.2 17.988c-.2 0-.4.2-.4.399 0 .242.16.402.4.402.241 0 .402-.16.402-.402 0-.239-.16-.399-.403-.399zm0 0M12.8 17.988c-.198 0-.402.2-.402.399 0 .242.16.402.403.402.238 0 .398-.16.398-.402 0-.239-.16-.399-.398-.399zm0 0M18.8 16.79c-.198 0-.402.198-.402.398 0 .242.16.402.403.402.238 0 .398-.16.398-.402 0-.239-.16-.399-.398-.399zm0 0M16.398 16.79c-.199 0-.398.198-.398.398 0 .242.16.402.398.402.243 0 .403-.16.403-.402 0-.239-.16-.399-.403-.399zm0 0M18.8 14.387c-.198 0-.402.203-.402.402 0 .238.16.399.403.399.238 0 .398-.16.398-.399 0-.242-.16-.402-.398-.402zm0 0M16.398 14.387c-.199 0-.398.203-.398.402 0 .238.16.399.398.399.243 0 .403-.16.403-.399 0-.242-.16-.402-.403-.402zm0 0M17.602 15.59c-.204 0-.403.2-.403.398 0 .239.16.399.403.399.238 0 .398-.16.398-.399 0-.242-.16-.398-.398-.398zm0 0M15.2 15.59c-.2 0-.4.2-.4.398 0 .239.16.399.4.399.241 0 .402-.16.402-.399 0-.242-.16-.398-.403-.398zm0 0M17.602 13.188a.43.43 0 0 0-.403.402c0 .238.16.398.403.398.238 0 .398-.16.398-.398 0-.242-.16-.402-.398-.402zm0 0M15.2 13.188c-.2 0-.4.199-.4.402 0 .238.16.398.4.398.241 0 .402-.16.402-.398 0-.242-.16-.402-.403-.402zm0 0M14 16.79c-.2 0-.398.198-.398.398 0 .242.16.402.398.402.238 0 .398-.16.398-.402 0-.239-.16-.399-.398-.399zm0 0M14 14.387c-.2 0-.398.203-.398.402 0 .238.16.399.398.399.238 0 .398-.16.398-.399 0-.242-.16-.402-.398-.402zm0 0M12.8 15.59c-.198 0-.402.2-.402.398 0 .239.16.399.403.399.238 0 .398-.16.398-.399 0-.242-.16-.398-.398-.398zm0 0M12.8 13.188c-.198 0-.402.199-.402.402 0 .238.16.398.403.398.238 0 .398-.16.398-.398 0-.242-.16-.402-.398-.402zm0 0M18.8 11.988c-.198 0-.402.2-.402.399 0 .242.16.402.403.402.238 0 .398-.16.398-.402 0-.239-.16-.399-.398-.399zm0 0M16.398 11.988c-.199 0-.398.2-.398.399 0 .242.16.402.398.402.243 0 .403-.16.403-.402 0-.239-.16-.399-.403-.399zm0 0M14 11.988c-.2 0-.398.2-.398.399 0 .242.16.402.398.402.238 0 .398-.16.398-.402 0-.239-.16-.399-.398-.399zm0 0"/>
    <path d="M22.398 0H1.602C.719 0 0 .719 0 1.602v20.796C0 23.281.719 24 1.602 24h20.796c.883 0 1.602-.719 1.602-1.602V1.602C24 .719 23.281 0 22.398 0zm.801 22.398c0 .442-.36.801-.8.801H1.601c-.442 0-.801-.36-.801-.8V1.601C.8 1.16 1.16.8 1.6.8h20.797c.442 0 .801.36.801.8zm0 0"/>
    <path d="M2.398 1.602a.8.8 0 0 0-.796.796c0 .442.359.801.796.801.442 0 .801-.36.801-.8a.801.801 0 0 0-.8-.797zm0 0M2.398 20.8a.801.801 0 0 0-.796.802.8.8 0 0 0 .796.796c.442 0 .801-.359.801-.796 0-.442-.36-.801-.8-.801zm0 0M21.602 1.602c-.442 0-.801.359-.801.796 0 .442.36.801.8.801.438 0 .797-.36.797-.8a.8.8 0 0 0-.796-.797zm0 0M21.602 20.8c-.442 0-.801.36-.801.802 0 .437.36.796.8.796a.8.8 0 0 0 .797-.796c0-.442-.359-.801-.796-.801zm0 0M19.602 4.8c0-.241-.16-.402-.403-.402H4.801c-.242 0-.403.16-.403.403v14.398c0 .242.16.403.403.403H12c.008 0 .012-.004.02-.004.007 0 .011.004.02.004h7.16c.241 0 .402-.16.402-.403zm-7.204.4h6.403v6.402h-6.403zM5.2 5.2h6.403v6.402H5.199zm6.442 13.6H5.238v-6.402h6.403zm7.199 0H12.44v-6.402h6.399zm0 0"/>
    <path d="M15.602 6.8C14.719 6.8 14 7.52 14 8.399c0 .883.719 1.602 1.602 1.602.878 0 1.597-.719 1.597-1.602 0-.878-.719-1.597-1.597-1.597zm0 2.4c-.442 0-.801-.36-.801-.802 0-.437.36-.796.8-.796a.8.8 0 0 1 .797.796c0 .442-.359.801-.796.801zm0 0M8.398 17.2c.243 0 .403-.16.403-.4v-2.402c0-.238-.16-.398-.403-.398-.238 0-.398.16-.398.398v2.403c0 .238.16.398.398.398zm0 0"/>
</svg>
